<?xml version="1.0" encoding="UTF-8"?>
<map version="1.10" tiledversion="1.11.2" orientation="orthogonal" renderorder="right-down" width="20" height="30" tilewidth="16" tileheight="16" infinite="0" nextlayerid="3" nextobjectid="1">
 <tileset firstgid="1" source="forest.tsx"/>
 <tileset firstgid="169" source="ground_grasss.tsx"/>
 <tileset firstgid="911" source="Water_coasts.tsx"/>
 <layer id="1" name="Fond" width="20" height="30" visible="0">
  <data encoding="csv">
0,0,0,0,0,0,0,0,0,0,0,0,0,0,0,0,0,0,0,0,
0,0,0,0,0,0,0,0,0,0,0,0,0,0,0,0,0,0,0,0,
0,0,0,0,0,0,0,0,0,0,0,0,0,0,0,0,0,0,0,0,
0,0,0,0,0,0,0,0,0,0,0,0,0,0,0,0,0,0,0,0,
0,0,0,0,0,0,0,0,0,0,0,0,0,0,0,0,0,0,0,0,
0,0,0,0,0,0,0,0,0,0,0,0,0,0,0,0,0,0,0,0,
0,0,0,0,0,0,0,0,0,0,0,0,0,0,0,0,0,0,0,0,
0,0,0,0,0,0,0,0,0,0,0,0,0,0,0,0,0,0,261,261,
261,261,261,261,261,261,261,261,261,0,0,0,0,0,0,0,0,261,261,261,
261,261,261,261,261,261,261,261,261,261,261,261,0,0,0,0,261,261,261,261,
261,261,261,261,261,261,261,261,261,261,261,261,261,261,261,261,261,261,261,261,
261,261,261,261,261,261,261,261,261,261,261,261,261,261,261,261,261,261,261,261,
261,261,261,261,261,261,261,261,261,261,261,261,261,261,261,261,261,261,261,261,
261,261,261,261,261,261,261,261,261,261,261,261,261,261,261,261,261,261,261,261,
261,261,261,261,261,261,261,261,261,261,261,261,261,261,261,261,261,261,261,261,
261,261,261,261,261,261,261,261,261,261,261,261,261,261,261,261,261,261,261,261,
261,261,261,261,261,261,261,261,261,261,261,261,261,261,261,261,261,261,261,261,
261,261,261,261,261,261,261,261,261,261,261,261,261,261,261,261,261,261,261,261,
261,261,261,261,261,261,261,261,261,261,261,261,261,261,261,261,261,261,261,261,
261,261,261,261,261,261,261,261,261,261,261,261,261,261,261,261,261,261,261,261,
261,261,261,261,261,261,261,261,261,261,261,261,261,261,261,261,261,261,261,261,
261,261,261,261,261,261,261,261,261,261,261,261,261,261,261,261,261,261,261,261,
261,261,261,261,261,261,261,261,261,261,261,261,261,261,261,261,261,261,261,261,
261,261,261,261,261,261,261,261,261,261,261,261,261,261,261,261,261,261,261,261,
261,261,261,261,261,261,261,261,261,261,261,261,261,261,261,261,261,261,261,261,
261,261,261,261,261,261,261,261,261,261,261,261,261,261,261,261,261,261,261,261,
261,261,261,261,261,261,261,261,261,261,261,261,261,261,261,261,261,261,261,261,
261,261,261,261,261,261,261,261,261,261,261,261,261,261,261,261,261,261,261,261,
261,261,261,261,261,261,261,261,261,261,261,261,261,261,261,261,261,261,261,261,
261,261,261,261,261,261,261,261,261,261,261,261,261,261,261,261,261,261,261,261
</data>
 </layer>
 <layer id="2" name="relief" width="20" height="30">
  <data encoding="csv">
0,0,0,0,0,0,0,0,0,0,0,0,0,0,0,0,0,0,0,0,
0,0,0,0,0,0,0,0,0,0,0,0,0,0,0,0,0,0,0,0,
0,0,0,0,0,0,0,0,0,0,0,0,0,0,0,0,0,0,0,0,
0,0,0,0,0,0,0,0,0,0,0,0,0,0,0,0,0,0,0,0,
0,0,0,0,0,0,0,0,0,0,0,0,0,0,0,0,0,0,0,0,
0,0,0,0,0,0,0,0,0,0,0,0,0,0,0,0,0,0,0,0,
0,0,0,0,0,0,0,0,0,0,0,0,0,0,0,0,0,0,0,0,
0,0,0,0,0,0,0,0,0,0,0,0,0,0,0,0,0,0,0,0,
0,0,0,0,0,0,0,0,0,0,0,0,0,0,0,0,0,0,0,0,
0,0,0,0,0,0,0,0,0,0,0,0,0,0,0,0,0,0,0,0,
0,551,655,655,655,655,655,655,655,655,655,655,655,655,655,655,655,655,552,0,
0,603,0,0,0,0,0,0,0,0,0,0,0,0,0,0,0,0,1002,0,
0,603,0,0,0,0,0,0,0,0,0,0,0,0,0,0,0,0,1002,0,
0,603,0,0,0,0,0,0,0,0,0,0,0,0,0,0,0,0,1002,0,
0,603,0,0,0,0,0,0,0,0,0,0,0,0,0,0,0,0,1002,0,
0,603,0,0,0,0,0,0,0,0,0,0,0,0,0,0,0,0,1002,0,
0,603,0,0,0,0,0,0,0,0,0,0,0,0,0,0,0,0,1002,0,
0,603,0,0,0,0,0,0,0,0,0,0,0,0,0,0,0,0,1002,0,
0,603,0,0,0,0,0,0,0,0,0,0,0,0,0,0,0,0,1002,0,
0,603,0,0,0,0,0,0,0,0,0,0,0,0,0,0,0,0,1002,0,
0,603,0,0,0,0,0,0,0,0,0,0,0,0,0,0,0,0,1002,0,
0,603,0,0,0,0,0,0,0,0,0,0,0,0,0,0,0,0,601,0,
0,603,0,0,0,0,0,0,0,0,0,0,0,0,0,0,0,0,601,0,
0,603,0,0,0,0,0,0,0,0,0,0,0,0,0,0,0,0,601,0,
0,603,0,0,0,0,0,0,0,0,0,0,0,0,0,0,0,0,601,0,
0,603,0,0,0,0,0,0,0,0,0,0,0,0,0,0,0,0,601,0,
0,604,549,549,549,549,549,549,549,549,549,549,549,549,549,549,549,549,605,0,
0,0,0,0,0,0,0,0,0,0,0,0,0,0,0,0,0,0,0,0,
0,0,0,0,0,0,0,0,0,0,0,0,0,0,0,0,0,0,0,0,
0,0,0,0,0,0,0,0,0,0,0,0,0,0,0,0,0,0,0,0
</data>
 </layer>
</map>
